X: 30451
M: C
L: 1/8
P: Key of D Minor.
K: Dm
V: 1 staves=3
zA |\
[fF][eE][fF][dD] [^c^C][dD][eE][gG] | [f2F2][d2D2][d2D2] :|
|: A2 |\
d^cde de=fd | =cBAG A2AB | =cBcd cdec | dBcA G2AG |\
[fF][eE][fF][dD] [^c^C][dD][eE][gG] | [f2F2][d2D2][d2D2] :|
V: 2
z2 |\
|: z2 |\
V: 3 clef=bass middle=d
z2 |\
d2z2 d2z2 | d2d2 d2z2 | a2z2 a2z2 | d2d2 d2z2 |\
d'2b2 a2z2 | f2ed c2z2 | d2f2 a2A2 | d2d2d2 :|
|: z2 |\
d2z2 B2z2 | f2ed c2z2 | d2f2 a2A2 | d2d2d2 :|


